src/images/icons/resume.svg

<svg width="52" height="52" viewBox="0 0 52 52" fill="none" xmlns="http://www.w3.org/2000/svg">
<path d="M21.1792 7.40259H39.9394C40.5249 7.40259 41 7.87714 41 8.46263V43.7479C41 44.3334 40.5249 44.808 39.9394 44.808H12.06C11.4746 44.808 11 44.3334 11 43.7479V8.46263C11 7.87714 11.4746 7.40259 12.06 7.40259H14.3758V3.45313C14.3758 2.86764 14.8503 2.39258 15.4358 2.39258H20.1187C20.7047 2.39258 21.1792 2.86764 21.1792 3.45313V7.40259ZM30.2471 15.8413C31.4494 15.8413 32.4242 16.8161 32.4242 18.0189C32.4242 18.8365 31.9738 19.5489 31.3071 19.9207V23.07C33.3789 22.5816 34.8488 20.726 34.8488 18.591C34.8488 16.0488 32.7888 13.9888 30.2471 13.9888C27.7048 13.9888 25.6449 16.0488 25.6449 18.591C25.6449 20.726 27.1152 22.5816 29.1865 23.07V19.9212C28.5199 19.5489 28.0695 18.8365 28.0695 18.0189C28.0695 16.8161 29.0443 15.8413 30.2471 15.8413ZM16.5251 28.3086C15.1302 28.3086 15.1302 26.188 16.5251 26.188H24.2572C25.652 26.188 25.652 28.3086 24.2572 28.3086H16.5251ZM16.5251 38.2192C15.1302 38.2192 15.1302 36.0986 16.5251 36.0986H35.4743C36.8692 36.0986 36.8692 38.2192 35.4743 38.2192H16.5251ZM16.5251 31.6124C15.1302 31.6124 15.1302 29.4918 16.5251 29.4918H24.2572C25.652 29.4918 25.652 31.6124 24.2572 31.6124H16.5251ZM16.5251 34.9158C15.1302 34.9158 15.1302 32.7952 16.5251 32.7952H35.4743C36.8692 32.7952 36.8692 34.9158 35.4743 34.9158H16.5251ZM30.2471 11.8682C33.9598 11.8682 36.9699 14.8778 36.9699 18.591C36.9699 22.3037 33.9598 25.3138 30.2471 25.3138C26.5344 25.3138 23.5243 22.3037 23.5243 18.591C23.5243 14.8778 26.5344 11.8682 30.2471 11.8682ZM14.3758 9.52318H13.1206V42.6874H38.8794V9.52318H21.1792V11.8389C21.1792 12.4244 20.7047 12.899 20.1187 12.899H15.4358C14.8503 12.899 14.3758 12.4244 14.3758 11.8389V9.52318ZM19.0587 4.51368H16.4964V10.7784H19.0587V4.51368Z" fill="black"/>
</svg>

<?xml version="1.0" encoding="UTF-8"?>
<svg id="Layer_1" xmlns="http://www.w3.org/2000/svg" version="1.1" viewBox="0 0 52 52">
  <!-- Generator: Adobe Illustrator 30.2.1, SVG Export Plug-In . SVG Version: 2.1.1 Build 1)  -->
  <defs>
    <style>
      .st0 {
        fill: #e3e3e3;
      }
    </style>
  </defs>
  <path class="st0" d="M21.18,7.4h18.76c.59,0,1.06.47,1.06,1.06v35.29c0,.59-.48,1.06-1.06,1.06H12.06c-.59,0-1.06-.47-1.06-1.06V8.46c0-.59.47-1.06,1.06-1.06h2.32v-3.95c0-.59.47-1.06,1.06-1.06h4.68c.59,0,1.06.48,1.06,1.06v3.95ZM30.25,15.84c1.2,0,2.18.97,2.18,2.18,0,.82-.45,1.53-1.12,1.9v3.15c2.07-.49,3.54-2.34,3.54-4.48,0-2.54-2.06-4.6-4.6-4.6s-4.6,2.06-4.6,4.6c0,2.14,1.47,3.99,3.54,4.48v-3.15c-.67-.37-1.12-1.08-1.12-1.9,0-1.2.97-2.18,2.18-2.18ZM16.53,28.31c-1.39,0-1.39-2.12,0-2.12h7.73c1.39,0,1.39,2.12,0,2.12h-7.73ZM16.53,38.22c-1.39,0-1.39-2.12,0-2.12h18.95c1.39,0,1.39,2.12,0,2.12h-18.95ZM16.53,31.61c-1.39,0-1.39-2.12,0-2.12h7.73c1.39,0,1.39,2.12,0,2.12h-7.73ZM16.53,34.92c-1.39,0-1.39-2.12,0-2.12h18.95c1.39,0,1.39,2.12,0,2.12h-18.95ZM30.25,11.87c3.71,0,6.72,3.01,6.72,6.72s-3.01,6.72-6.72,6.72-6.72-3.01-6.72-6.72,3.01-6.72,6.72-6.72ZM14.38,9.52h-1.26v33.16h25.76V9.52h-17.7v2.32c0,.59-.47,1.06-1.06,1.06h-4.68c-.59,0-1.06-.47-1.06-1.06v-2.32ZM19.06,4.51h-2.56v6.26h2.56v-6.26Z"/>
</svg>
